; generated by PrusaSlicer 2.9.2 on 2025-05-01 at 05:06:15 UTC

; 

; external perimeters extrusion width = 0.45mm
; perimeters extrusion width = 0.45mm
; infill extrusion width = 0.45mm
; solid infill extrusion width = 0.45mm
; top infill extrusion width = 0.40mm
; first layer extrusion width = 0.40mm

M104 S200 ; set temperature
;TYPE:Custom
G28 ; home all axes
G1 Z5 F5000 ; lift nozzle
M109 S200 ; set temperature and wait for it to be reached
G21 ; set units to millimeters
G90 ; use absolute coordinates
M82 ; use absolute distances for extrusion
G92 E0
; Filament gcode
M107
;LAYER_CHANGE
;Z:0.2
;HEIGHT:0.2
G1 E-2 F2400
G92 E0
G1 Z.2 F7800
G1 X57.456 Y65.099
G1 E2 F2400
;TYPE:Skirt/Brim
;WIDTH:0.4
G1 F1800
G1 X59.191 Y63.724 E2.06573
G1 X62.098 Y62.997 E2.1547
G1 X137.24 Y62.997 E4.38576
G1 X139.418 Y63.394 E4.45149
G1 X141.317 Y64.533 E4.51724
G1 X142.692 Y66.269 E4.58299
G1 X143.417 Y69.064 E4.66872
G1 X144.078 Y105.888 E5.76225
G1 X143.416 Y130.987 E6.50773
G1 X142.962 Y133.154 E6.57347
G1 X141.773 Y135.022 E6.63922
G1 X140.002 Y136.351 E6.70496
G1 X137.24 Y137.003 E6.78922
G1 X62.098 Y137.003 E9.02028
G1 X59.92 Y136.606 E9.08601
G1 X58.021 Y135.467 E9.15176
G1 X56.646 Y133.731 E9.21751
G1 X55.92 Y130.824 E9.30647
G1 X55.92 Y69.176 E11.13688
G1 X56.316 Y66.997 E11.20264
G1 X57.425 Y65.15 E11.26661
G1 E9.26661 F2400
G92 E0
G92 E0
G1 X136.399 Y102.981 F7800
G1 E2 F2400
;TYPE:External perimeter
;WIDTH:0.547428
G1 F1800
G1 X135.947 Y102.592 E2.02502
;WIDTH:0.5826
G1 X135.663 Y102.432 E2.03965
;WIDTH:0.617772
G1 X135.378 Y102.273 E2.05525
;WIDTH:0.620434
G1 X135.361 Y102.264 E2.05617
G1 X135.701 Y102.475 F7800
G1 E.05617 F2400
G92 E0
G1 X136.975 Y107.047 F7800
G1 E2 F2400
;WIDTH:0.529166
G1 F1800
G1 X136.975 Y130.317 E2.94084
;WIDTH:0.570879
G1 X136.954 Y130.417 E2.94533
;WIDTH:0.612592
G1 X136.933 Y130.518 E2.95022
G1 X136.833 Y130.539 E2.95506
;WIDTH:0.570879
G1 X136.732 Y130.56 E2.95959
;WIDTH:0.529166
G1 X62.606 Y130.56 E5.95662
;WIDTH:0.570878
G1 X62.505 Y130.539 E5.96115
;WIDTH:0.61259
G1 X62.404 Y130.518 E5.96604
G1 X62.384 Y130.417 E5.97092
;WIDTH:0.570877
G1 X62.363 Y130.317 E5.97541
;WIDTH:0.529164
G1 X62.363 Y69.683 E8.42692
;WIDTH:0.570875
G1 X62.384 Y69.583 E8.43141
;WIDTH:0.612586
G1 X62.404 Y69.482 E8.43629
G1 X62.505 Y69.461 E8.44118
;WIDTH:0.570875
G1 X62.606 Y69.44 E8.44571
;WIDTH:0.529164
G1 X136.732 Y69.44 E11.44272
;WIDTH:0.570878
G1 X136.833 Y69.461 E11.44725
;WIDTH:0.612592
G1 X136.933 Y69.482 E11.45209
G1 X136.954 Y69.583 E11.45698
;WIDTH:0.570879
G1 X136.975 Y69.683 E11.46147
;WIDTH:0.529166
G1 X136.975 Y102.966 E12.80715
;WIDTH:0.556792
G1 X136.961 Y103.036 E12.8102
G1 X136.963 Y103.436 F7800
G1 X137.203 Y105.112
;TYPE:Perimeter
;WIDTH:0.417577
G1 F1800
G1 X137.237 Y104.92 E12.81627
G1 X137.329 Y105.74 E12.84198
G1 X137.242 Y106.413 E12.86312
G1 X137.108 Y106.189 E12.87125
G1 X136.878 Y105.971 E12.88112
G1 X137.142 Y105.451 E12.89929
G1 X137.192 Y105.171 E12.90815
G1 E10.90815 F2400
G92 E0
G1 X136.66 Y103.16 F7800
G1 E2 F2400
;TYPE:External perimeter
;WIDTH:0.505817
G1 F1800
G1 X136.773 Y103.19 E2.0045
;WIDTH:0.528114
G1 X136.867 Y103.113 E2.0094
;WIDTH:0.556792
G1 X136.961 Y103.036 E2.01459
G1 X136.976 Y103.185 E2.02099
;WIDTH:0.528114
G1 X136.99 Y103.333 E2.02699
;WIDTH:0.499436
G1 X137.01 Y103.366 E2.02845
;WIDTH:0.458866
G1 X137.031 Y103.4 E2.02983
;WIDTH:0.418295
G1 X137.052 Y103.588 E2.03573
;WIDTH:0.395982
G1 X137.281 Y103.995 E2.04944
;WIDTH:0.399999
G1 X137.597 Y104.854 E2.07662
G1 X137.692 Y105.787 E2.10447
G1 X137.602 Y106.484 E2.12534
G1 X137.391 Y106.964 E2.14091
G1 X137.224 Y106.868 E2.14663
;WIDTH:0.443055
G1 X137.141 Y106.928 E2.15004
;WIDTH:0.486111
G1 X137.058 Y106.987 E2.15379
;WIDTH:0.529166
G1 X136.975 Y107.047 E2.15793
G1 X136.954 Y106.892 E2.16425
;WIDTH:0.486111
G1 X136.932 Y106.738 E2.16998
;WIDTH:0.443055
G1 X136.911 Y106.584 E2.17515
;WIDTH:0.399999
G1 X136.855 Y106.454 E2.17935
G1 X136.417 Y106.037 E2.19731
G1 X136.782 Y105.387 E2.21944
G1 X136.91 Y104.638 E2.242
G1 X136.87 Y104.086 E2.25843
;WIDTH:0.395982
G1 X136.73 Y103.646 E2.27199
;WIDTH:0.41685
G1 X136.717 Y103.561 E2.27466
;WIDTH:0.458143
G1 X136.705 Y103.477 E2.27759
;WIDTH:0.499436
G1 X136.692 Y103.393 E2.28082
;WIDTH:0.515066
G1 X136.399 Y102.981 E2.30067
G1 X136.576 Y103.137 E2.30993
;WIDTH:0.505817
G1 X136.603 Y103.144 E2.311
G1 X136.996 Y103.071 F7800
G1 E.311 F2400
G92 E0
G1 X132.96 Y101.662 F7800
G1 E2 F2400
;TYPE:Perimeter
;WIDTH:0.440816
G1 F1800
G1 X132.808 Y101.646 E2.00506
;WIDTH:0.481379
G1 X132.198 Y101.625 E2.02731
;WIDTH:0.521942
G1 X131.589 Y101.605 E2.05158
G1 X128.751 Y101.605 E2.16462
G1 X127.565 Y101.357 F7800
;WIDTH:0.551013
G1 F1800
G1 X127.715 Y101.24 E2.17266
G1 X127.719 Y101.093 E2.17887
;WIDTH:0.516295
G1 X127.723 Y100.945 E2.1847
;WIDTH:0.481576
G1 X126.855 Y93.096 E2.47273
;WIDTH:0.481106
G1 X126.807 Y92.74 E2.48582
;WIDTH:0.466655
G1 X126.665 Y91.984 E2.51292
;WIDTH:0.463252
G1 X126.563 Y91.651 E2.52509
;WIDTH:0.43117
G1 X126.462 Y91.318 E2.53632
;WIDTH:0.399088
G1 X126.224 Y90.652 E2.55727
G1 X126.577 Y90.93 E2.57058
G1 X126.764 Y91.14 E2.57891
;WIDTH:0.409285
G1 X126.889 Y91.409 E2.58795
;WIDTH:0.436269
G1 X126.983 Y91.657 E2.59662
;WIDTH:0.463252
G1 X127.078 Y91.905 E2.6059
;WIDTH:0.481106
G1 X127.291 Y93.048 E2.64826
;WIDTH:0.481576
G1 X128.159 Y100.897 E2.93629
;WIDTH:0.516295
G1 X128.172 Y101.068 E2.94304
;WIDTH:0.551013
G1 X128.185 Y101.24 E2.95033
G1 X128.751 Y101.605 E2.97878
G1 X127.253 Y101.6 E3.04207
G1 X127.518 Y101.394 E3.05625
G1 X127.253 Y101.6 F7800
;WIDTH:0.530982
G1 F1800
G1 X126.857 Y101.605 E3.07232
;WIDTH:0.52194
G1 X126.158 Y101.585 E3.10017
;WIDTH:0.482875
G1 X125.46 Y101.566 E3.12571
;WIDTH:0.44381
G1 X125.147 Y101.531 E3.13621
G1 E1.13621 F2400
G92 E0
G1 X120.337 Y96.071 F7800
G1 E2 F2400
;WIDTH:0.527767
G1 F1800
G1 X120.855 Y96.568 E2.02894
G1 X120.615 Y97.204 E2.05635
G1 X120.525 Y97.854 E2.0828
G1 X120.38 Y97.207 E2.10953
G1 X120.326 Y96.641 E2.13245
G1 X120.335 Y96.131 E2.15301
G1 E.15301 F2400
G92 E0
G1 X127.277 Y101.102 F7800
G1 E2 F2400
;TYPE:External perimeter
;WIDTH:0.399999
G1 F1800
G1 X127.315 Y101.076 E2.00137
G1 X127.327 Y100.989 E2.00398
G1 X126.423 Y92.811 E2.24827
G1 X126.209 Y91.668 E2.2828
G1 X125.866 Y90.722 E2.31268
;WIDTH:0.445649
G1 X125.763 Y90.519 E2.3203
;WIDTH:0.491299
G1 X125.661 Y90.317 E2.32874
;WIDTH:0.536949
G1 X125.558 Y90.114 E2.33809
;WIDTH:0.582598
G1 X125.455 Y89.911 E2.34831
G1 X125.529 Y89.929 E2.35173
;WIDTH:0.547624
G1 X125.815 Y90.065 E2.36502
;WIDTH:0.498416
G1 X126.101 Y90.2 E2.377
;WIDTH:0.449208
G1 X126.387 Y90.335 E2.38768
;WIDTH:0.399999
G1 X126.803 Y90.654 E2.40325
G1 X127.084 Y90.965 E2.41569
G1 X127.446 Y91.762 E2.44168
G1 X127.683 Y92.979 E2.47849
G1 X128.586 Y101.076 E2.72039
G1 X128.751 Y101.187 E2.72629
G1 X131.602 Y101.187 E2.81094
G1 X132.888 Y101.277 E2.84922
;WIDTH:0.448852
G1 X133.068 Y101.341 E2.85567
;WIDTH:0.497705
G1 X133.248 Y101.405 E2.86289
;WIDTH:0.546557
G1 X133.428 Y101.469 E2.87089
G1 X134.006 Y101.575 E2.8955
;WIDTH:0.501437
G1 X134.346 Y101.692 E2.90921
;WIDTH:0.465127
G1 X134.685 Y101.808 E2.92179
;WIDTH:0.428817
G1 X135.025 Y101.924 E2.93332
;WIDTH:0.434473
G1 X135.088 Y101.987 E2.93622
;WIDTH:0.47644
G1 X135.151 Y102.05 E2.93943
;WIDTH:0.518407
G1 X135.214 Y102.113 E2.94295
;WIDTH:0.560374
G1 X135.276 Y102.176 E2.94675
;WIDTH:0.602341
G1 X135.339 Y102.239 E2.95089
G1 X135.254 Y102.242 E2.95485
;WIDTH:0.560374
G1 X135.169 Y102.245 E2.95851
;WIDTH:0.518407
G1 X135.084 Y102.249 E2.96187
;WIDTH:0.47644
G1 X134.998 Y102.252 E2.96497
;WIDTH:0.434473
G1 X134.913 Y102.255 E2.96774
;WIDTH:0.411464
G1 X134.625 Y102.166 E2.97698
;WIDTH:0.456451
G1 X134.257 Y102.09 E2.9899
;WIDTH:0.501437
G1 X133.888 Y102.015 E3.00426
;WIDTH:0.546557
G1 X133.364 Y101.967 E3.0263
G1 X133.222 Y101.986 E3.0323
;WIDTH:0.497705
G1 X133.08 Y102.004 E3.03771
;WIDTH:0.448852
G1 X132.938 Y102.023 E3.04255
;WIDTH:0.399999
G1 X126.845 Y102.023 E3.22346
G1 X125.439 Y101.944 E3.26527
G1 X125.081 Y101.88 E3.27607
;WIDTH:0.449155
G1 X124.955 Y101.831 E3.28064
;WIDTH:0.498311
G1 X124.829 Y101.782 E3.28576
;WIDTH:0.547466
G1 X124.703 Y101.733 E3.29143
G1 X124.155 Y101.642 E3.31474
;WIDTH:0.515991
G1 X123.608 Y101.466 E3.33734
;WIDTH:0.471281
G1 X123.061 Y101.29 E3.35781
;WIDTH:0.42657
G1 X122.83 Y101.172 E3.36608
;WIDTH:0.394887
G1 X122.6 Y101.053 E3.37366
;WIDTH:0.363203
G1 X122.146 Y100.795 E3.38757
;WIDTH:0.34466
G1 X121.904 Y100.6 E3.39537
;WIDTH:0.344206
G1 X121.125 Y99.863 E3.42224
;WIDTH:0.370351
G1 X120.944 Y99.607 E3.43078
;WIDTH:0.396495
G1 X120.762 Y99.351 E3.44001
;WIDTH:0.399999
G1 X120.453 Y98.83 E3.458
G1 X120.208 Y98.268 E3.4762
G1 X120.031 Y97.667 E3.4948
G1 X119.926 Y97.044 E3.51356
G1 X119.891 Y96.383 E3.53321
G1 X119.946 Y95.654 E3.55492
G1 X120.043 Y95.207 E3.5685
G1 X121.353 Y96.462 E3.62236
G1 X121.051 Y97.201 E3.64606
G1 X120.91 Y98.175 E3.67528
G1 X120.987 Y98.884 E3.69645
G1 X121.231 Y99.492 E3.7159
;WIDTH:0.351052
G1 X121.422 Y99.743 E3.72398
;WIDTH:0.325452
G1 X121.612 Y99.994 E3.73138
;WIDTH:0.315666
G1 X122.105 Y100.419 E3.74614
;WIDTH:0.363203
G1 X122.727 Y100.762 E3.76506
;WIDTH:0.400128
G1 X123.105 Y100.894 E3.77695
;WIDTH:0.437053
G1 X123.483 Y101.026 E3.79007
;WIDTH:0.476522
G1 X123.877 Y101.106 E3.80457
;WIDTH:0.515991
G1 X124.272 Y101.186 E3.82042
;WIDTH:0.547466
G1 X124.761 Y101.233 E3.84103
G1 X124.895 Y101.214 E3.84671
;WIDTH:0.498311
G1 X125.029 Y101.196 E3.85183
;WIDTH:0.449155
G1 X125.163 Y101.177 E3.8564
;WIDTH:0.399999
G1 X127.15 Y101.187 E3.9154
G1 X127.227 Y101.135 E3.91816
G1 X127.295 Y100.741 F7800
G1 E1.91816 F2400
G92 E0
G1 X127.008 Y88.896 F7800
G1 E2 F2400
;TYPE:Perimeter
;WIDTH:0.542642
G1 F1800
G1 X125.584 Y88.965 E2.05924
;WIDTH:0.585089
G1 X125.472 Y88.991 E2.06442
;WIDTH:0.627535
G1 X125.361 Y89.018 E2.06997
;WIDTH:0.669982
G1 X125.249 Y89.044 E2.07597
;WIDTH:0.712428
G1 X125.138 Y89.07 E2.08232
G1 X125.013 Y89.054 E2.08934
;WIDTH:0.669006
G1 X124.887 Y89.038 E2.09595
;WIDTH:0.625584
G1 X124.762 Y89.022 E2.10206
;WIDTH:0.582162
G1 X124.636 Y89.006 E2.10775
;WIDTH:0.565189
G1 X124.225 Y89.037 E2.12565
;WIDTH:0.591638
G1 X123.814 Y89.069 E2.14446
G1 X125.448 Y89.534 F7800
;TYPE:External perimeter
;WIDTH:0.428597
G1 F1800
G1 X125.403 Y89.629 E2.14783
;WIDTH:0.467126
G1 X125.405 Y89.691 E2.15002
;WIDTH:0.505654
G1 X125.407 Y89.752 E2.15237
;WIDTH:0.544182
G1 X125.409 Y89.814 E2.15496
;WIDTH:0.58271
G1 X125.411 Y89.876 E2.15774
G1 X125.338 Y89.836 E2.16148
;WIDTH:0.544182
G1 X125.265 Y89.797 E2.16493
;WIDTH:0.505654
G1 X125.192 Y89.758 E2.16811
;WIDTH:0.467126
G1 X125.119 Y89.719 E2.17103
;WIDTH:0.428597
G1 X124.82 Y89.474 E2.18343
;WIDTH:0.399999
G1 X124.682 Y89.43 E2.18773
G1 X123.653 Y89.542 E2.21846
G1 X122.739 Y88.664 E2.25609
G1 X127.172 Y88.465 E2.38784
G1 X128.004 Y89.269 E2.42219
G1 X125.606 Y89.393 E2.49348
G1 X125.492 Y89.442 E2.49716
;WIDTH:0.428597
G1 X125.474 Y89.48 E2.49851
G1 X125.366 Y89.865 F7800
G1 E.49851 F2400
G92 E0
G1 X111.792 Y101.219 F7800
G1 E2 F2400
;WIDTH:0.620478
G1 F1800
G1 X111.985 Y101.391 E2.01242
;WIDTH:0.571491
G1 X112.178 Y101.563 E2.02378
;WIDTH:0.52499
G1 X112.571 Y101.81 E2.04239
;WIDTH:0.554896
G1 X113.044 Y101.996 E2.06403
;WIDTH:0.595871
G1 X113.216 Y102.036 E2.07215
;WIDTH:0.636846
G1 X113.387 Y102.077 E2.08083
G1 X113.023 Y101.911 F7800
G1 E.08083 F2400
G92 E0
G1 X113.278 Y88.538 F7800
G1 E2 F2400
;WIDTH:0.631912
G1 F1800
G1 X113.952 Y88.665 E2.03359
;WIDTH:0.583778
G1 X114.724 Y88.968 E2.07089
;WIDTH:0.590424
G1 X115.213 Y89.281 E2.09732
;WIDTH:0.59769
G1 X115.257 Y89.314 E2.09986
G1 X114.891 Y89.152 F7800
G1 E.09986 F2400
G92 E0
G1 X109.451 Y89.918 F7800
G1 E2 F2400
;TYPE:Perimeter
;WIDTH:0.399738
G1 F1800
G1 X109.384 Y89.957 E2.0023
G1 X109.451 Y89.995 E2.00459
G1 X109.474 Y89.957 E2.00591
G1 X109.599 Y90.477 F7800
;WIDTH:0.399999
G1 F1800
G1 X108.931 Y90.072 E2.0291
G1 X109.131 Y89.76 E2.0401
G1 X109.464 Y89.383 E2.05503
G1 X109.74 Y89.175 E2.06529
G1 X110.227 Y88.913 E2.08171
G1 X110.517 Y88.821 E2.09074
G1 X111.054 Y88.702 E2.10707
G1 X110.515 Y89.071 E2.12646
G1 X110.102 Y89.514 E2.14444
G1 X109.826 Y89.949 E2.15974
G1 X109.625 Y90.43 E2.17522
G1 X109.824 Y91.031 F7800
;TYPE:External perimeter
G1 F1800
G1 X108.475 Y90.214 E2.22205
G1 X108.617 Y89.899 E2.23231
G1 X108.865 Y89.515 E2.24588
G1 X109.205 Y89.137 E2.26098
G1 X109.644 Y88.803 E2.27736
G1 X110.105 Y88.575 E2.29263
G1 X110.632 Y88.411 E2.30902
G1 X111.207 Y88.314 E2.32633
;WIDTH:0.438827
G1 X111.451 Y88.32 E2.33436
;WIDTH:0.477654
G1 X112.018 Y88.319 E2.35486
;WIDTH:0.440708
G1 X112.339 Y88.31 E2.36548
;WIDTH:0.403761
G1 X112.892 Y88.33 E2.38208
;WIDTH:0.411326
G1 X112.956 Y88.365 E2.38431
;WIDTH:0.455443
G1 X113.021 Y88.399 E2.38683
;WIDTH:0.49956
G1 X113.085 Y88.434 E2.3896
;WIDTH:0.543678
G1 X113.149 Y88.469 E2.39264
;WIDTH:0.587795
G1 X113.214 Y88.503 E2.39596
;WIDTH:0.631912
G1 X113.278 Y88.538 E2.39953
G1 X113.213 Y88.557 E2.40285
;WIDTH:0.587795
G1 X113.149 Y88.576 E2.40587
;WIDTH:0.543678
G1 X113.085 Y88.596 E2.40866
;WIDTH:0.49956
G1 X113.02 Y88.615 E2.41123
;WIDTH:0.455443
G1 X112.956 Y88.634 E2.41352
;WIDTH:0.411326
G1 X112.891 Y88.654 E2.4156
;WIDTH:0.409326
G1 X112.311 Y88.671 E2.43328
;WIDTH:0.436513
G1 X112.015 Y88.723 E2.44312
;WIDTH:0.4637
G1 X111.718 Y88.774 E2.45366
G1 X111.467 Y88.896 E2.46342
;WIDTH:0.43185
G1 X111.215 Y89.018 E2.47247
;WIDTH:0.399999
G1 X110.772 Y89.32 E2.48839
G1 X110.404 Y89.705 E2.5042
G1 X110.113 Y90.169 E2.52046
G1 X109.907 Y90.683 E2.5369
G1 X109.838 Y90.973 E2.54575
G1 X109.469 Y90.818 F7800
G1 E.54575 F2400
G92 E0
G1 X116.34 Y92.982 F7800
G1 E2 F2400
;TYPE:Perimeter
;WIDTH:0.49733
G1 F1800
G1 X116.19 Y93.27 E2.01227
;WIDTH:0.541626
G1 X116.041 Y93.558 E2.02572
;WIDTH:0.549614
G1 X115.63 Y94.105 E2.05455
;WIDTH:0.55615
G1 X114.826 Y94.88 E2.10221
G1 X113.86 Y95.676 E2.15563
;WIDTH:0.568846
G1 X112.444 Y96.89 E2.2372
;WIDTH:0.546126
G1 X111.645 Y97.721 E2.28544
;WIDTH:0.511412
G1 X111.497 Y97.964 E2.29652
;WIDTH:0.462867
G1 X111.349 Y98.207 E2.30646
G1 E.30646 F2400
G92 E0
G1 X116.359 Y90.778 F7800
G1 E2 F2400
;WIDTH:0.399999
G1 F1800
G1 X116.479 Y90.957 E2.0064
G1 X116.727 Y91.644 E2.02809
G1 X116.81 Y92.399 E2.05064
G1 X116.712 Y93.088 E2.0713
G1 X116.414 Y93.774 E2.09351
G1 X115.891 Y94.477 E2.11953
G1 X115.114 Y95.206 E2.15116
G1 X112.723 Y97.217 E2.24392
G1 X111.783 Y98.191 E2.28411
G1 X111.377 Y98.87 E2.3076
G1 X111.311 Y99.044 E2.31313
G1 X111.175 Y99.751 E2.33451
G1 X111.177 Y100.055 E2.34354
G1 X110.965 Y99.45 E2.36257
G1 X110.895 Y98.782 E2.38251
G1 X110.997 Y98.096 E2.4031
G1 X111.301 Y97.487 E2.42331
G1 X111.977 Y96.729 E2.45347
G1 X113.187 Y95.662 E2.50137
G1 X114.413 Y94.668 E2.54823
G1 X115.286 Y93.843 E2.58389
G1 X115.847 Y93.106 E2.61139
G1 X115.991 Y92.823 E2.62082
G1 X116.288 Y92.12 E2.64348
G1 X116.401 Y91.375 E2.66585
G1 X116.363 Y90.838 E2.68183
G1 X115.257 Y89.314 F7800
;TYPE:External perimeter
;WIDTH:0.59769
G1 F1800
G1 X115.341 Y89.341 E2.6859
;WIDTH:0.552095
G1 X115.424 Y89.368 E2.6896
;WIDTH:0.5065
G1 X115.508 Y89.395 E2.693
;WIDTH:0.460905
G1 X115.592 Y89.422 E2.69607
;WIDTH:0.41531
G1 X115.675 Y89.449 E2.69877
;WIDTH:0.376016
G1 X115.816 Y89.584 E2.70418
;WIDTH:0.399999
G1 X116.335 Y90.099 E2.72589
G1 X116.8 Y90.795 E2.75074
G1 X117.077 Y91.563 E2.77498
G1 X117.17 Y92.404 E2.8001
G1 X117.059 Y93.186 E2.82355
G1 X116.725 Y93.954 E2.84842
G1 X116.159 Y94.716 E2.8766
G1 X115.35 Y95.475 E2.90954
G1 X114.364 Y96.287 E2.94747
G1 X112.955 Y97.489 E3.00246
G1 X112.194 Y98.261 E3.03465
G1 X111.968 Y98.577 E3.04619
G1 X111.661 Y99.111 E3.06448
G1 X111.526 Y99.818 E3.08585
G1 X111.561 Y100.338 E3.10132
G1 X111.638 Y100.626 E3.11017
;WIDTH:0.444095
G1 X111.669 Y100.744 E3.11424
;WIDTH:0.488191
G1 X111.7 Y100.863 E3.11879
;WIDTH:0.532287
G1 X111.73 Y100.982 E3.12378
;WIDTH:0.576383
G1 X111.761 Y101.1 E3.12919
;WIDTH:0.620478
G1 X111.792 Y101.219 E3.1351
G1 X111.72 Y101.179 E3.13906
;WIDTH:0.576383
G1 X111.648 Y101.138 E3.14274
;WIDTH:0.532287
G1 X111.577 Y101.098 E3.14606
;WIDTH:0.488191
G1 X111.505 Y101.058 E3.14911
;WIDTH:0.444095
G1 X111.433 Y101.018 E3.15186
