; generated by PrusaSlicer 2.9.2 on 2025-05-03 at 20:49:01 UTC


;
;

;
;

;
;

;
;
; 

; external perimeters extrusion width = 0.45mm
; perimeters extrusion width = 0.45mm
; infill extrusion width = 0.45mm
; solid infill extrusion width = 0.45mm
; top infill extrusion width = 0.42mm
; first layer extrusion width = 0.50mm

; external perimeters extrusion width = 0.45mm
; perimeters extrusion width = 0.45mm
; infill extrusion width = 0.45mm
; solid infill extrusion width = 0.45mm
; top infill extrusion width = 0.42mm
; first layer extrusion width = 0.50mm

; external perimeters extrusion width = 0.45mm
; perimeters extrusion width = 0.45mm
; infill extrusion width = 0.45mm
; solid infill extrusion width = 0.45mm
; top infill extrusion width = 0.42mm
; first layer extrusion width = 0.50mm

; external perimeters extrusion width = 0.45mm
; perimeters extrusion width = 0.45mm
; infill extrusion width = 0.45mm
; solid infill extrusion width = 0.45mm
; top infill extrusion width = 0.42mm
; first layer extrusion width = 0.50mm

; external perimeters extrusion width = 0.45mm
; perimeters extrusion width = 0.45mm
; infill extrusion width = 0.45mm
; solid infill extrusion width = 0.45mm
; top infill extrusion width = 0.42mm
; first layer extrusion width = 0.50mm

; external perimeters extrusion width = 0.45mm
; perimeters extrusion width = 0.45mm
; infill extrusion width = 0.45mm
; solid infill extrusion width = 0.45mm
; top infill extrusion width = 0.42mm
; first layer extrusion width = 0.50mm

; external perimeters extrusion width = 0.45mm
; perimeters extrusion width = 0.45mm
; infill extrusion width = 0.45mm
; solid infill extrusion width = 0.45mm
; top infill extrusion width = 0.42mm
; first layer extrusion width = 0.50mm

M73 P0 R0
M73 Q0 S1
M201 X7000 Y7000 Z200 E2500 ; sets maximum accelerations, mm/sec^2
M203 X400 Y400 Z12 E100 ; sets maximum feedrates, mm / sec
M204 P4000 R1200 T5000 ; sets acceleration (P, T) and retract acceleration (R), mm/sec^2
M205 X8.00 Y8.00 Z2.00 E10.00 ; sets the jerk limits, mm/sec
M205 S0 T0 ; sets the minimum extruding and travel feed rate, mm/sec

M486 S0
M486 AShape-Box
M486 S-1
M486 S1
M486 AShape-Box
M486 S-1
M486 S2
M486 AShape-Box
M486 S-1
M486 S3
M486 AShape-Box
M486 S-1
M486 S4
M486 AShape-Box
M486 S-1
M486 S5
M486 AShape-Box
M486 S-1
M486 S6
M486 AShape-Box
M486 S-1

;TYPE:Custom
M17 ; enable steppers
M862.3 P "XL" ; printer model check
M862.5 P2 ; g-code level check
M862.6 P"Input shaper" ; FW feature check
M115 U6.2.4+8909
G90 ; use absolute coordinates
M83 ; extruder relative mode
; set print area
M555 X130 Y292.717 W100 H33.5
; inform about nozzle diameter
M862.1 T0 P0.4 A0 F0





; turn off unused heaters

M104 T1 S0
M104 T2 S0
M104 T3 S0
M104 T4 S0

M217 Z2 ; set toolchange z hop to 2mm, or zhop variable from slicer if higher
; set bed and extruder temp for MBL
M140 S80 ; set bed temp
G0 Z5 ; add Z clearance
M109 T0 S175 ; wait for temp

; Home XY
G28 XY
; try picking tools used in print
G1 F24000





; select tool that will be used to home & MBL
T0 S1 L0 D0
; home Z with MBL tool
M84 E ; turn off E motor
G28 Z
G0 Z5 ; add Z clearance

M104 T0 S70 ; set idle temp
M190 S80 ; wait for bed temp

G29 G ; absorb heat

M109 T0 S175 ; wait for temp

; move to the nozzle cleanup area
G1 X162 Y285.717 Z5 F24000
M73 P1 R0
M73 Q1 S1
M302 S160 ; lower cold extrusion limit to 160C
G1 E-2 F2400 ; retraction for nozzle cleanup
M73 P3 R0
M73 Q4 S1
; nozzle cleanup
M84 E ; turn off E motor
G29 P9 X130 Y285.717 W32 H7
G0 Z5 F480 ; move away in Z
M107 ; turn off the fan
; MBL
M84 E ; turn off E motor
G29 P1 ; invalidate mbl & probe print area
G29 P1 X30 Y0 W50 H20 C ; probe near purge place
G29 P3.2 ; interpolate mbl probes
G29 P3.13 ; extrapolate mbl outside probe area
G29 A ; activate mbl
G1 Z10 F720 ; move away in Z
G1 F24000
M73 P4 R0
M73 Q5 S1
P0 S1 L1 D0; park the tool
; set extruder temp
M104 T0 S235









;
; purge initial tool
;
G1 F24000
P0 S1 L2 D0; park the tool
M109 T0 S235
T0 S1 L0 D0; pick the tool
G92 E0 ; reset extruder position

G0 X30 Y-7 Z10 F24000 ; move close to the sheet's edge
G0 E30 X40 Z0.2 F170 ; purge while moving towards the sheet
M73 P5 R0
M73 Q8 S0
G0 X70 E9 F800 ; continue purging and wipe the nozzle
M73 P14 R0
M73 Q16 S0
G0 X73 Z0.05 F8000 ; wipe, move close to the bed
M73 P18 R0
M73 Q20 S0
G0 X76 Z0.2 F8000 ; wipe, move quickly away from the bed
G1 E-0.8 F2400 ; retract

G92 E0 ; reset extruder position
G21 ; set units to millimeters
G90 ; use absolute coordinates
M83 ; use relative distances for extrusion
M900 K0.07 ; Filament gcode


M572 S0.053 ; Filament gcode


M142 S36 ; set heatbreak target temp
M107
;LAYER_CHANGE
;Z:0.2
;HEIGHT:0.2
G1 Z1.7 F720
M486 S6
G1 X229.789 Y326.006 F24000
G1 Z.2 F720
M73 P20 R0
M73 Q24 S0
G1 E.8 F1500
M204 P500
;TYPE:External perimeter
;WIDTH:0.421459
G1 F2400
G1 X130.211 Y326.006 E3.13428
G1 X130.211 Y325.627 E.01193
M73 P25 R0
M73 Q28 S0
G1 X229.789 Y325.627 E3.13428
G1 X229.789 Y325.817 E.00598
M73 P29 R0
M73 Q32 S0
G1 X229.789 Y325.946 E.00406
M204 P2500
G1 E-.16 F2100
;WIPE_START
G1 F19200
G1 X229.789 Y326.006 E-.00623
G1 X223.69 Y326.006 E-.63377
;WIPE_END
M204 T5000
M486 S-1
M486 S5
G1 X229.814 Y320.231 Z.347 F24000
G1 Z.2 F720
M73 P30 R0
M73 Q33 S0
G1 E.8 F1500
M204 P500
;WIDTH:0.371459
G1 F2400
G1 X130.186 Y320.231 E2.72165
G1 X130.186 Y319.902 E.00899
M73 P34 R0
M73 Q37 S0
G1 X229.814 Y319.902 E2.72165
G1 X229.814 Y320.067 E.00451
M73 P39 R0
M73 Q41 S0
G1 X229.814 Y320.171 E.00284
M204 P2500
G1 E-.16 F2100
;WIPE_START
G1 F19200
G1 X229.814 Y320.231 E-.00623
G1 X223.715 Y320.231 E-.63377
;WIPE_END
G1 X151.883 Y315.76 Z1.456 F24000
G1 X146.308 Y315.413 Z1.544
M73 Q42 S0
G1 X140.733 Y315.066 Z1.612
G1 X135.159 Y314.719 Z1.661
M486 S-1
M486 S4
G1 X130.3 Y314.417 Z1.688
G1 Z.2 F720
G1 E.8 F1500
M73 P40 R0
M204 P500
;WIDTH:0.6
G1 F2400
M73 Q43 S0
G1 X229.7 Y314.417 E4.60435
M204 P2500
G1 E-.16 F2100
M73 P44 R0
M73 Q47 S0
;WIPE_START
G1 F19200
G1 X223.541 Y314.417 E-.64
;WIPE_END
G1 X151.697 Y310.143 Z1.456 F24000
G1 X146.121 Y309.811 Z1.544
M73 P45 R0
M73 Q48 S0
G1 X140.546 Y309.479 Z1.612
G1 X134.97 Y309.147 Z1.661
M486 S-1
M486 S2
G1 X130.25 Y308.867 Z1.687
G1 Z.2 F720
G1 E.8 F1500
M204 P500
;WIDTH:0.499998
G1 F2400
G1 X229.75 Y308.867 E3.78162
M204 P2500
G1 E-.16 F2100
M73 P50 R0
M73 Q52 S0
;WIPE_START
G1 F19200
G1 X223.591 Y308.867 E-.64
;WIPE_END
G1 X151.742 Y304.674 Z1.456 F24000
M73 Q53 S0
G1 X146.166 Y304.348 Z1.544
G1 X140.59 Y304.023 Z1.612
M73 Q54 S0
G1 X135.014 Y303.698 Z1.661
M486 S-1
M486 S1
G1 X130.2 Y303.417 Z1.687
G1 Z.2 F720
G1 E.8 F1500
M73 P51 R0
M204 P500
;WIDTH:0.4
G1 F2400
G1 X229.8 Y303.417 E2.95726
M204 P2500
G1 E-.16 F2100
M73 P55 R0
M73 Q58 S0
;WIPE_START
G1 F19200
G1 X223.641 Y303.417 E-.64
;WIPE_END
G1 X151.788 Y299.305 Z1.456 F24000
G1 X146.211 Y298.986 Z1.544
M73 P56 R0
M73 Q59 S0
G1 X140.635 Y298.667 Z1.612
G1 X135.058 Y298.348 Z1.661
M486 S-1
M486 S0
G1 X130.15 Y298.067 Z1.688
M73 Q60 S0
G1 Z.2 F720
G1 E.8 F1500
M204 P500
;WIDTH:0.38292
G1 F2400
G1 X229.85 Y298.067 E2.81863
M204 P2500
G1 E-.16 F2100
M73 P61 R0
M73 Q64 S0
;WIPE_START
G1 F19200
G1 X223.691 Y298.067 E-.64
;WIPE_END
G1 X151.833 Y294.036 Z1.456 F24000
G1 X146.256 Y293.723 Z1.544
M73 Q65 S0
G1 X140.679 Y293.41 Z1.612
G1 X135.103 Y293.097 Z1.661
M486 S-1
M486 S3
G1 X130.1 Y292.817 Z1.688
G1 Z.2 F720
M73 Q66 S0
G1 E.8 F1500
M73 P62 R0
M204 P500
G1 F2400
G1 X229.9 Y292.817 E2.82146
M204 P2500
M486 S-1
G1 E-.16 F2100
M73 P66 R0
M73 Q70 S0
;WIPE_START
G1 F19200;_WIPE
G1 X223.741 Y292.817 E-.64
;WIPE_END
M107
;TYPE:Custom
; Filament-specific end gcode
; Filament-specific end gcode
; Filament-specific end gcode
; Filament-specific end gcode
; Filament-specific end gcode
G4 ; wait

G1 Z5.2 ; Move bed down

P0 S1 ; park tool

G1 Z97.2 F300 ; Move bed further down
M73 P67 R0
M73 Q71 S0

; turn off extruder heaters
M104 T0 S0





M140 S0 ; turn off heatbed
M107 ; turn off fan
M221 S100 ; reset flow percentage
M84 ; disable motors
M77 ; stop print timer
; max_layer_z = 0.2
M73 P100 R0
M73 Q100 S0
; objects_info = {"objects":[{"name":"Shape-Box","polygon":[[230.000,298.217],[130.000,298.217],[130.000,297.917],[230.000,297.917]]},{"name":"Shape-Box","polygon":[[230.000,303.617],[130.000,303.617],[130.000,303.217],[230.000,303.217]]},{"name":"Shape-Box","polygon":[[230.000,309.117],[130.000,309.117],[130.000,308.617],[230.000,308.617]]},{"name":"Shape-Box","polygon":[[230.000,292.917],[130.000,292.917],[130.000,292.717],[230.000,292.717]]},{"name":"Shape-Box","polygon":[[230.000,314.717],[130.000,314.717],[130.000,314.117],[230.000,314.117]]},{"name":"Shape-Box","polygon":[[230.000,320.417],[130.000,320.417],[130.000,319.717],[230.000,319.717]]},{"name":"Shape-Box","polygon":[[230.000,326.217],[130.000,326.217],[130.000,325.417],[230.000,325.417]]}]}
; filament used [mm] = 65.73, 0.00, 0.00, 0.00, 0.00
; filament used [cm3] = 0.16, 0.00, 0.00, 0.00, 0.00
; filament used [g] = 0.20, 0.00, 0.00, 0.00, 0.00
; filament cost = 0.01, 0.00, 0.00, 0.00, 0.00
; total filament used [g] = 0.20
; total filament cost = 0.01
; total filament used for wipe tower [g] = 0.00
; estimated printing time (normal mode) = 57s
; estimated printing time (silent mode) = 1m 3s
; estimated first layer printing time (normal mode) = 57s
; estimated first layer printing time (silent mode) = 1m 3s

; prusaslicer_config = begin
; arc_fitting = emit_center
; autoemit_temperature_commands = 1
; automatic_extrusion_widths = 0
; automatic_infill_combination = 0
; automatic_infill_combination_max_layer_height = 100%
; avoid_crossing_curled_overhangs = 0
; avoid_crossing_perimeters = 0
; avoid_crossing_perimeters_max_detour = 0
; bed_custom_model = 
; bed_custom_texture = 
; bed_shape = 0x0,360x0,360x360,0x360
; bed_temperature = 80,80,80,80,60
; bed_temperature_extruder = 0
; before_layer_gcode = ;BEFORE_LAYER_CHANGE\nG92 E0.0\n;[layer_z]\n\n
; between_objects_gcode = 
; binary_gcode = 0
; bottom_fill_pattern = monotonic
; bottom_solid_layers = 4
; bottom_solid_min_thickness = 0.5
; bridge_acceleration = 1500
; bridge_angle = 0
; bridge_fan_speed = 50,50,50,50,100
; bridge_flow_ratio = 1
; bridge_speed = 50
; brim_separation = 0.1
; brim_type = outer_only
; brim_width = 0
; chamber_minimal_temperature = 0,0,0,0,0
; chamber_temperature = 0,0,0,0,0
; color_change_gcode = M600
; colorprint_heights = 
; compatible_printers_condition_cummulative = "printer_notes=~/.*XLIS.*/ and nozzle_diameter[0]==0.4";"printer_notes=~/.*XL.*/ and nozzle_diameter[0]!=0.6 and nozzle_diameter[0]!=0.8 and printer_notes!~/.*HF_NOZZLE.*/";"printer_notes=~/.*XL.*/ and nozzle_diameter[0]!=0.6 and nozzle_diameter[0]!=0.8 and printer_notes!~/.*HF_NOZZLE.*/";"printer_notes=~/.*XL.*/ and nozzle_diameter[0]!=0.6 and nozzle_diameter[0]!=0.8 and printer_notes!~/.*HF_NOZZLE.*/";"printer_notes=~/.*XL.*/ and nozzle_diameter[0]!=0.6 and nozzle_diameter[0]!=0.8 and printer_notes!~/.*HF_NOZZLE.*/";"printer_notes=~/.*XLIS.*/ and nozzle_diameter[0]!=0.8 and nozzle_diameter[0]!=0.6 and printer_notes!~/.*HF_NOZZLE.*/"
; complete_objects = 0
; cooling = 1,1,1,1,1
; cooling_tube_length = 5
; cooling_tube_retraction = 91.5
; default_acceleration = 2500
; default_filament_profile = "Prusament PLA @XLIS"
; default_print_profile = 0.20mm SPEED @XLIS 0.4
; deretract_speed = 25,25,25,25,25
; disable_fan_first_layers = 3,3,3,3,1
; dont_support_bridges = 0
; draft_shield = disabled
; duplicate_distance = 6
; elefant_foot_compensation = 0.2
; enable_dynamic_fan_speeds = 0,0,0,0,0
; enable_dynamic_overhang_speeds = 1
; end_filament_gcode = "; Filament-specific end gcode";"; Filament-specific end gcode";"; Filament-specific end gcode";"; Filament-specific end gcode";"; Filament-specific end gcode"
; end_gcode = G4 ; wait\n\n{if layer_z < max_print_height}G1 Z{z_offset+min(max_layer_z+5, max_print_height)}{endif} ; Move bed down\n\nP0 S1 ; park tool\n\n{if layer_z < max_print_height}G1 Z{z_offset+min(max_layer_z+97, max_print_height)} F300{endif} ; Move bed further down\n\n; turn off extruder heaters\n{if is_extruder_used[0]}M104 T0 S0{endif}\n{if is_extruder_used[1]}M104 T1 S0{endif}\n{if is_extruder_used[2]}M104 T2 S0{endif}\n{if is_extruder_used[3]}M104 T3 S0{endif}\n{if is_extruder_used[4]}M104 T4 S0{endif}\n\nM140 S0 ; turn off heatbed\nM107 ; turn off fan\nM221 S100 ; reset flow percentage\nM84 ; disable motors\nM77 ; stop print timer\n; max_layer_z = [max_layer_z]
; ensure_vertical_shell_thickness = enabled
; external_perimeter_acceleration = 1500
; external_perimeter_extrusion_width = 0.45
; external_perimeter_speed = 45
; external_perimeters_first = 0
; extra_loading_move = -2
; extra_perimeters = 0
; extra_perimeters_on_overhangs = 0
; extruder_clearance_height = 21
; extruder_clearance_radius = 67
; extruder_colour = #FF8000;#DB5182;#3EC0FF;#FF4F4F;#FBEB7D
; extruder_offset = 0x0,0x0,0x0,0x0,0x0
; extrusion_axis = E
; extrusion_multiplier = 1,0.94,1,1,1
; extrusion_width = 0.45
; fan_always_on = 1,1,1,1,1
; fan_below_layer_time = 20,20,20,20,100
; filament_abrasive = 0,0,0,0,0
; filament_colour = #FF8000;#FF8000;#FF8000;#FF8000;#FF8000
; filament_cooling_final_speed = 2.5,2.5,2.5,2.5,3.5
; filament_cooling_initial_speed = 5,5,5,5,10
; filament_cooling_moves = 3,3,3,3,2
; filament_cost = 27.82,27.82,27.82,27.82,25.4
; filament_density = 1.27,1.27,1.27,1.27,1.24
; filament_deretract_speed = nil,nil,nil,nil,nil
; filament_diameter = 1.75,1.75,1.75,1.75,1.75
; filament_infill_max_crossing_speed = 110,110,110,110,0
; filament_infill_max_speed = 0,0,0,0,0
; filament_load_time = 10.5,10.5,10.5,10.5,10.5
; filament_loading_speed = 10,10,10,10,10
; filament_loading_speed_start = 50,50,50,50,50
; filament_max_volumetric_speed = 9,9,9,9,15
; filament_minimal_purge_on_wipe_tower = 35,35,35,35,15
; filament_multitool_ramming = 1,1,1,1,1
; filament_multitool_ramming_flow = 40,40,40,40,40
; filament_multitool_ramming_volume = 10,10,10,10,10
; filament_notes = ;;;;
; filament_purge_multiplier = 100%,100%,100%,100%,81.25%
; filament_ramming_parameters = "250 100 42.4194 42.4194 42.4194 42.4194 42.4194| 0.05 42.4387 0.45 42.4387 0.95 42.4387 1.45 42.4387 1.95 42.4387 2.45 42.4387 2.95 42.4387 3.45 42.4387 3.95 42.4387 4.45 42.4387 4.95 42.4387";"250 100 42.4194 42.4194 42.4194 42.4194 42.4194| 0.05 42.4387 0.45 42.4387 0.95 42.4387 1.45 42.4387 1.95 42.4387 2.45 42.4387 2.95 42.4387 3.45 42.4387 3.95 42.4387 4.45 42.4387 4.95 42.4387";"250 100 42.4194 42.4194 42.4194 42.4194 42.4194| 0.05 42.4387 0.45 42.4387 0.95 42.4387 1.45 42.4387 1.95 42.4387 2.45 42.4387 2.95 42.4387 3.45 42.4387 3.95 42.4387 4.45 42.4387 4.95 42.4387";"250 100 42.4194 42.4194 42.4194 42.4194 42.4194| 0.05 42.4387 0.45 42.4387 0.95 42.4387 1.45 42.4387 1.95 42.4387 2.45 42.4387 2.95 42.4387 3.45 42.4387 3.95 42.4387 4.45 42.4387 4.95 42.4387";"250 100 40.1613 40.3548 40.4516 40.3548 40.2581| 0.05 40.1483 0.45 40.3419 0.95 40.3419 1.45 40.3419 1.95 40.3419 2.45 40.3419 2.95 40.3419 3.45 40.3419 3.95 40.3419 4.45 40.3419 4.95 40.3419"
; filament_retract_before_travel = nil,nil,nil,nil,nil
; filament_retract_before_wipe = 20%,20%,20%,20%,nil
; filament_retract_layer_change = nil,nil,nil,nil,nil
; filament_retract_length = 0.8,0.8,0.8,0.8,nil
; filament_retract_length_toolchange = 20,20,20,20,20
; filament_retract_lift = 0.15,0.15,0.15,0.15,nil
; filament_retract_lift_above = nil,nil,nil,nil,nil
; filament_retract_lift_below = nil,nil,nil,nil,nil
; filament_retract_restart_extra = nil,nil,nil,nil,nil
; filament_retract_restart_extra_toolchange = nil,nil,nil,nil,nil
; filament_retract_speed = nil,nil,nil,nil,nil
; filament_seam_gap_distance = nil,nil,nil,nil,nil
; filament_settings_id = "Generic PETG @XL - Cooler (235oC)";"Generic PETG @XL - Cooler (235oC) - 0.94 Multipler";"Generic PETG @XL";"Generic PETG @XL";"Generic PLA @XLIS"
; filament_shrinkage_compensation_xy = 0%,0%,0%,0%,0%
; filament_shrinkage_compensation_z = 0%,0%,0%,0%,0%
; filament_soluble = 0,0,0,0,0
; filament_spool_weight = 0,0,0,0,0
; filament_stamping_distance = 45,45,45,45,45
